X: 1
T: Itchy Fingers
P: piffero primo a0802
O: Rab Pinkman
%R: reel
F: http://ancients.sudburymuster.org/mus/sng/pdf/itchyfingersC0.pdf
Z: 2020 John Chambers <jc:trillian.mit.edu>
M: 2/4
L: 1/16
K: Amix
cd |\
e2ef eAce | fAdf e2cd | e2ef eAce | cAdc B2cd |\
e2ef eAce | fAdf e2ce | dccB BfeB | c2A2 A2 :|
ce |\
a2Aa caAa | fada e2ce | a2Aa caAa | cAdc B2ce |\
a2Aa caAa | fada e2ce | dccB BfeB | c2A2 A2 |]
ce |\
a2Aa caAa | fada e2ce | a2Aa caAa | cAdc B2cd |\
e2ef eAce | ddaf d2ce | dccB BfeB | c2A2 A2 |]
